src/img/event_icons/doors_open.svg

<svg fill="none" height="13" viewBox="0 0 14 13" width="14" xmlns="http://www.w3.org/2000/svg"><path d="m11.375.625h-1.75c-.49219 0-.875.41016-.875.875 0 .49219.38281.875.875.875h1.75c.4648 0 .875.41016.875.875v7c0 .4922-.4102.875-.875.875h-1.75c-.49219 0-.875.4102-.875.875 0 .4922.38281.875.875.875h1.75c1.4492 0 2.625-1.1484 2.625-2.625v-7c0-1.44922-1.1758-2.625-2.625-2.625zm-2.02344 5.52344-3.5-3.5c-.32812-.35547-.90234-.35547-1.23047 0-.35547.32812-.35547.90234 0 1.23047l1.9961 1.99609h-5.74219c-.492188 0-.875.41016-.875.875 0 .49219.382812.875.875.875h5.74219l-1.9961 2.02344c-.35547.32812-.35547.90236 0 1.23046.32813.3555.90235.3555 1.23047 0l3.5-3.49999c.35547-.32813.35547-.90235 0-1.23047z" fill="#000"/></svg>

<svg width="14" height="13" viewBox="0 0 14 13" fill="none" xmlns="http://www.w3.org/2000/svg">
<path d="M11.375 0.625H9.625C9.13281 0.625 8.75 1.03516 8.75 1.5C8.75 1.99219 9.13281 2.375 9.625 2.375H11.375C11.8398 2.375 12.25 2.78516 12.25 3.25V10.25C12.25 10.7422 11.8398 11.125 11.375 11.125H9.625C9.13281 11.125 8.75 11.5352 8.75 12C8.75 12.4922 9.13281 12.875 9.625 12.875H11.375C12.8242 12.875 14 11.7266 14 10.25V3.25C14 1.80078 12.8242 0.625 11.375 0.625ZM9.35156 6.14844L5.85156 2.64844C5.52344 2.29297 4.94922 2.29297 4.62109 2.64844C4.26562 2.97656 4.26562 3.55078 4.62109 3.87891L6.61719 5.875H0.875C0.382812 5.875 0 6.28516 0 6.75C0 7.24219 0.382812 7.625 0.875 7.625H6.61719L4.62109 9.64844C4.26562 9.97656 4.26562 10.5508 4.62109 10.8789C4.94922 11.2344 5.52344 11.2344 5.85156 10.8789L9.35156 7.37891C9.70703 7.05078 9.70703 6.47656 9.35156 6.14844Z" fill="black"/>
</svg>
